src/resources/assets/play-order.svg

<svg xmlns="http://www.w3.org/2000/svg" width="16" height="16"><path d="M 14.667969 12.5 C 14.667969 12.777344 14.441406 13 14.167969 13 L 1.832031 13 C 1.558594 13 1.332031 12.777344 1.332031 12.5 C 1.332031 12.222656 1.558594 12 1.832031 12 L 14.167969 12 C 14.441406 12 14.667969 12.222656 14.667969 12.5 Z M 11.855469 10.1875 C 11.660156 10.382812 11.339844 10.382812 11.144531 10.1875 L 9.144531 8.1875 C 8.953125 7.992188 8.953125 7.675781 9.144531 7.480469 C 9.339844 7.285156 9.660156 7.285156 9.855469 7.480469 L 11 8.625 L 11 3.167969 C 11 2.890625 11.222656 2.667969 11.5 2.667969 C 11.777344 2.667969 12 2.890625 12 3.167969 L 12 8.625 L 13.144531 7.480469 C 13.339844 7.285156 13.660156 7.285156 13.855469 7.480469 C 14.046875 7.675781 14.046875 7.992188 13.855469 8.1875 Z M 8.332031 9.832031 C 8.332031 10.109375 8.109375 10.332031 7.832031 10.332031 L 1.832031 10.332031 C 1.558594 10.332031 1.332031 10.109375 1.332031 9.832031 C 1.332031 9.558594 1.558594 9.332031 1.832031 9.332031 L 7.832031 9.332031 C 8.109375 9.332031 8.332031 9.558594 8.332031 9.832031 Z M 8.332031 7.167969 C 8.332031 7.441406 8.109375 7.667969 7.832031 7.667969 L 1.832031 7.667969 C 1.558594 7.667969 1.332031 7.441406 1.332031 7.167969 C 1.332031 6.890625 1.558594 6.667969 1.832031 6.667969 L 7.832031 6.667969 C 8.109375 6.667969 8.332031 6.890625 8.332031 7.167969 Z M 8.332031 4.5 C 8.332031 4.777344 8.109375 5 7.832031 5 L 1.832031 5 C 1.558594 5 1.332031 4.777344 1.332031 4.5 C 1.332031 4.222656 1.558594 4 1.832031 4 L 7.832031 4 C 8.109375 4 8.332031 4.222656 8.332031 4.5 Z M 8.332031 4.5" fill="#ddd"/></svg>

<svg xmlns="http://www.w3.org/2000/svg" width="16" height="16"><path d="M14.668 12.5c0 .277-.227.5-.5.5H1.832a.501.501 0 010-1h12.336c.273 0 .5.223.5.5zm-2.813-2.313a.505.505 0 01-.71 0l-2-2a.507.507 0 010-.707.505.505 0 01.71 0L11 8.625V3.168c0-.277.223-.5.5-.5s.5.223.5.5v5.457l1.145-1.145a.505.505 0 01.71 0 .507.507 0 010 .707zm-3.523-.355c0 .277-.223.5-.5.5h-6a.501.501 0 010-1h6c.277 0 .5.227.5.5zm0-2.664c0 .273-.223.5-.5.5h-6a.501.501 0 010-1h6c.277 0 .5.223.5.5zm0-2.668c0 .277-.223.5-.5.5h-6a.501.501 0 010-1h6c.277 0 .5.223.5.5zm0 0" fill="#ddd"/></svg>
